X:29
T:Frenchie's Reel
S:Bernie Waugh
R:Reel
M:2/4
L:1/16
K:Bb
|:~FE|\
"Bb"DFBc d2~FE|DFBc dBcB|"F"AFcF eFcF|AFcF e2 FE|
"Bb"DFBc d2FE|DFBc dBcB|"F"AFcF ecAc|"Bb"~BABc B2:|
|:FE|\
"Bb"D2BD FBDF|"(Bb7)"BDFB DFBD|"Eb"E2BE GBEG|"(Cm)"BEGB EGBE|
"F"F2cF FdFF|"F7"eFFd FFcF|"Bb"~BABd "F"cBAc|"Bb"~BABc B2:|

